packages/core/src/svgs/ggg.svg

<svg width="24" height="24" viewBox="0 0 24 24" fill="none" xmlns="http://www.w3.org/2000/svg">
<g clip-path="url(#clip0_31_10751)">
<path d="M0 0H24V24H0V0Z" fill="url(#paint0_linear_31_10751)"/>
<path d="M10.3886 11.0187C10.0831 10.638 9.69238 10.3345 9.24791 10.1327C8.80344 9.93097 8.31773 9.83661 7.83005 9.85728C5.94434 9.85728 4.28577 11.3144 4.28577 13.243C4.28577 13.9201 4.5172 14.7601 5.03577 15.4459C5.33046 15.8457 5.71637 16.1694 6.16139 16.3901C6.60641 16.6107 7.09768 16.7219 7.59434 16.7144C7.94046 16.7224 8.28453 16.6591 8.60521 16.5286C8.92589 16.3981 9.21636 16.2032 9.45862 15.9559H9.4972C9.6472 15.9559 9.68577 16.0844 9.68577 16.1401V16.2859C9.68577 16.5944 9.94291 16.7144 10.1915 16.7144C10.5558 16.7144 10.7143 16.4144 10.7143 16.243V14.173C10.7143 13.8516 10.4143 13.7144 10.2643 13.7144H9.69862C9.20148 13.7144 8.88434 14.1987 9.21005 14.5544C9.16291 14.6701 9.08577 14.7987 8.97862 14.9144C8.76862 15.133 8.42148 15.4287 7.6372 15.4287C6.42005 15.4287 5.57148 14.3444 5.57148 13.243C5.57148 12.0559 6.64291 11.143 7.83005 11.143C8.4172 11.143 8.94862 11.3401 9.33005 11.8287C9.45862 11.9959 9.66005 12.0001 9.8572 12.0001C10.3715 12.0001 10.7743 11.5116 10.3886 11.0187ZM13.6115 11.0187C14.2886 10.1616 15.2315 9.86157 16.1701 9.85728C18.0558 9.85728 19.7143 11.3144 19.7143 13.243C19.7143 13.9201 19.4829 14.7601 18.9643 15.4459C18.6696 15.8457 18.2837 16.1694 17.8387 16.3901C17.3937 16.6107 16.9024 16.7219 16.4058 16.7144C16.0596 16.7224 15.7156 16.6591 15.3949 16.5286C15.0742 16.3981 14.7837 16.2032 14.5415 15.9559H14.5029C14.3529 15.9559 14.3143 16.0844 14.3143 16.1401V16.2859C14.3143 16.5944 14.0572 16.7144 13.8086 16.7144C13.4443 16.7144 13.2858 16.4144 13.2858 16.243V14.173C13.2858 13.8516 13.5858 13.7144 13.7358 13.7144H14.3015C14.7986 13.7144 15.1158 14.1987 14.7901 14.5544C14.8372 14.6701 14.9143 14.7987 15.0215 14.9144C15.2315 15.133 15.5786 15.4287 16.3629 15.4287C17.5801 15.4287 18.4286 14.3444 18.4286 13.243C18.4286 12.0559 17.3572 11.143 16.1701 11.143C15.5829 11.143 15.0515 11.3401 14.6701 11.8287C14.5415 11.9959 14.3401 12.0001 14.1429 12.0001C13.6286 12.0001 13.2258 11.5116 13.6115 11.0187Z" fill="white"/>
<path d="M7.92861 12C7.87177 12 7.81727 12.0226 7.77708 12.0628C7.7369 12.1029 7.71432 12.1575 7.71432 12.2143V12.8571H7.07146C7.01463 12.8571 6.96013 12.8797 6.91994 12.9199C6.87975 12.9601 6.85718 13.0146 6.85718 13.0714C6.85718 13.1283 6.87975 13.1828 6.91994 13.223C6.96013 13.2631 7.01463 13.2857 7.07146 13.2857H7.71432V13.9286C7.71432 13.9854 7.7369 14.0399 7.77708 14.0801C7.81727 14.1203 7.87177 14.1429 7.92861 14.1429C7.98544 14.1429 8.03994 14.1203 8.08013 14.0801C8.12032 14.0399 8.14289 13.9854 8.14289 13.9286V13.2857H8.78575C8.84258 13.2857 8.89709 13.2631 8.93727 13.223C8.97746 13.1828 9.00003 13.1283 9.00003 13.0714C9.00003 13.0146 8.97746 12.9601 8.93727 12.9199C8.89709 12.8797 8.84258 12.8571 8.78575 12.8571H8.14289V12.2143C8.14289 12.1575 8.12032 12.1029 8.08013 12.0628C8.03994 12.0226 7.98544 12 7.92861 12Z" fill="#FF0281"/>
<path d="M16.2857 12.8571C16.5224 12.8571 16.7143 12.6653 16.7143 12.4286C16.7143 12.1919 16.5224 12 16.2857 12C16.0491 12 15.8572 12.1919 15.8572 12.4286C15.8572 12.6653 16.0491 12.8571 16.2857 12.8571Z" fill="#FCE102"/>
<path d="M16.2857 14.5715C16.5224 14.5715 16.7143 14.3796 16.7143 14.1429C16.7143 13.9062 16.5224 13.7144 16.2857 13.7144C16.0491 13.7144 15.8572 13.9062 15.8572 14.1429C15.8572 14.3796 16.0491 14.5715 16.2857 14.5715Z" fill="#71FA00"/>
<path d="M17.1428 13.7141C17.3795 13.7141 17.5714 13.5222 17.5714 13.2855C17.5714 13.0488 17.3795 12.8569 17.1428 12.8569C16.9061 12.8569 16.7142 13.0488 16.7142 13.2855C16.7142 13.5222 16.9061 13.7141 17.1428 13.7141Z" fill="#FF0080"/>
<path d="M15.4286 13.7141C15.6653 13.7141 15.8571 13.5222 15.8571 13.2855C15.8571 13.0488 15.6653 12.8569 15.4286 12.8569C15.1919 12.8569 15 13.0488 15 13.2855C15 13.5222 15.1919 13.7141 15.4286 13.7141Z" fill="#33DAF0"/>
<path d="M16.0714 5.57129C16.4271 5.57129 16.7143 5.85843 16.7143 6.21415V7.49986C16.7143 8.01135 16.5111 8.50189 16.1494 8.86357C15.7877 9.22524 15.2972 9.42843 14.7857 9.42843H13.0714C12.7157 9.42843 12.4285 9.71557 12.4285 10.0713V10.9284C12.4285 11.0989 12.3608 11.2624 12.2402 11.383C12.1197 11.5036 11.9562 11.5713 11.7857 11.5713C11.6152 11.5713 11.4517 11.5036 11.3311 11.383C11.2106 11.2624 11.1428 11.0989 11.1428 10.9284V10.0713C11.1428 9.5598 11.346 9.06926 11.7077 8.70758C12.0694 8.34591 12.5599 8.14272 13.0714 8.14272H14.7857C15.1414 8.14272 15.4285 7.85557 15.4285 7.49986V6.21415C15.4285 5.85843 15.7157 5.57129 16.0714 5.57129Z" fill="white"/>
</g>
<defs>
<linearGradient id="paint0_linear_31_10751" x1="4.46571" y1="4.16143" x2="29.2071" y2="32.58" gradientUnits="userSpaceOnUse">
<stop stop-color="#1A1E21"/>
<stop offset="1" stop-color="#06060A"/>
</linearGradient>
<clipPath id="clip0_31_10751">
<rect width="24" height="24" fill="white"/>
</clipPath>
</defs>
</svg>

<svg xmlns="http://www.w3.org/2000/svg" width="24" height="24" fill="none" viewBox="0 0 24 24"><g clip-path="url(#a)"><path fill="url(#b)" d="M0 0h24v24H0z"/><path fill="#fff" d="M10.389 11.019A3.11 3.11 0 0 0 7.83 9.857c-1.886 0-3.544 1.457-3.544 3.386 0 .677.231 1.517.75 2.203a3.12 3.12 0 0 0 2.558 1.268 2.53 2.53 0 0 0 1.865-.758h.038c.15 0 .189.128.189.184v.146c0 .308.257.428.505.428.365 0 .523-.3.523-.471v-2.07c0-.321-.3-.459-.45-.459H9.7c-.498 0-.815.485-.489.84a1.2 1.2 0 0 1-.231.36c-.21.219-.558.515-1.342.515-1.217 0-2.066-1.085-2.066-2.186 0-1.187 1.072-2.1 2.26-2.1.586 0 1.118.197 1.499.686.129.167.33.171.527.171.515 0 .917-.488.532-.981m3.223 0c.677-.857 1.62-1.157 2.558-1.162 1.886 0 3.544 1.457 3.544 3.386 0 .677-.231 1.517-.75 2.203a3.12 3.12 0 0 1-2.558 1.268 2.53 2.53 0 0 1-1.864-.758h-.04c-.15 0-.188.128-.188.184v.146c0 .308-.257.428-.505.428a.506.506 0 0 1-.523-.471v-2.07c0-.321.3-.459.45-.459h.566c.497 0 .814.485.488.84.047.116.124.245.232.36.21.219.557.515 1.34.515 1.218 0 2.067-1.085 2.067-2.186 0-1.187-1.072-2.1-2.259-2.1-.587 0-1.119.197-1.5.686-.129.167-.33.171-.527.171-.514 0-.917-.488-.532-.981"/><path fill="#FF0281" d="M7.929 12a.214.214 0 0 0-.215.214v.643h-.643a.214.214 0 0 0 0 .429h.643v.643a.214.214 0 0 0 .429 0v-.643h.643a.215.215 0 0 0 0-.429h-.643v-.643A.214.214 0 0 0 7.929 12"/><path fill="#FCE102" d="M16.286 12.857a.429.429 0 1 0 0-.857.429.429 0 0 0 0 .857"/><path fill="#71FA00" d="M16.286 14.572a.429.429 0 1 0 0-.858.429.429 0 0 0 0 .857"/><path fill="#FF0080" d="M17.143 13.714a.429.429 0 1 0 0-.857.429.429 0 0 0 0 .857"/><path fill="#33DAF0" d="M15.429 13.714a.429.429 0 1 0 0-.857.429.429 0 0 0 0 .857"/><path fill="#fff" d="M16.071 5.571c.356 0 .643.287.643.643V7.5a1.93 1.93 0 0 1-1.928 1.928H13.07a.64.64 0 0 0-.643.643v.857a.643.643 0 1 1-1.285 0v-.857a1.93 1.93 0 0 1 1.928-1.928h1.715a.64.64 0 0 0 .643-.643V6.214c0-.356.287-.643.642-.643"/></g><defs><linearGradient id="b" x1="4.466" x2="29.207" y1="4.161" y2="32.58" gradientUnits="userSpaceOnUse"><stop stop-color="#1A1E21"/><stop offset="1" stop-color="#06060A"/></linearGradient><clipPath id="a"><path fill="#fff" d="M0 0h24v24H0z"/></clipPath></defs></svg>
